assets/img/gm-clean.svg

<svg fill="none" height="361" viewBox="0 0 666 361" width="666" xmlns="http://www.w3.org/2000/svg"><g fill="#fff"><path d="m171.832 47.002c0-1.3354 1.082-2.418 2.418-2.418h43.448c1.336 0 2.42 1.0829 2.401 2.4182-.057 4.0213-.258 7.7251-.604 11.1114-.413 4.0547-1.241 7.8199-2.482 11.2954-1.738 4.8822-4.096 9.2266-7.075 13.033-2.979 3.7238-6.496 6.8683-10.551 9.4335-3.972 2.4825-8.357 4.3858-13.157 5.7098-4.799 1.324-9.847 1.9859-15.143 1.9859-7.282 0-13.943-1.1998-19.984-3.5996-5.958-2.3997-11.089-5.7511-15.392-10.0541-4.303-4.3857-7.654-9.5989-10.054-15.6397-2.399-6.1235-3.599-12.8676-3.599-20.2323 0-7.282 1.158-13.9433 3.475-19.9841 2.4-6.1235 5.751-11.3367 10.054-15.6397 4.386-4.303 9.641-7.65433 15.764-10.05408 6.124-2.39974 12.95-3.599615 20.481-3.599615 9.764 0 18.329 2.110115 25.693 6.330355 6.717 3.84874 12.16 9.62444 16.33 17.32714.663 1.2244.086 2.734-1.2 3.2665l-18.491 7.655c-1.23.5092-2.631-.0773-3.226-1.2681-1.999-4.0029-4.479-6.9557-7.439-8.8583-3.392-2.2343-7.282-3.3514-11.667-3.3514-3.641 0-6.951.7034-9.93 2.1101-2.979 1.324-5.545 3.2686-7.696 5.8339-2.069 2.4825-3.724 5.5028-4.965 9.0611-1.159 3.5582-1.738 7.5302-1.738 11.9159 0 3.972.497 7.6544 1.49 11.0471 1.075 3.3928 2.648 6.3304 4.716 8.8129 2.069 2.4825 4.634 4.4271 7.696 5.8339 3.062 1.324 6.62 1.986 10.675 1.986 2.4 0 4.717-.2483 6.951-.7448 2.234-.5792 4.22-1.4481 5.958-2.6066 1.82-1.2413 3.31-2.8135 4.468-4.7168.748-1.2281 1.34-2.6285 1.778-4.2011.396-1.4257-.752-2.7498-2.231-2.7498h-14.754c-1.336 0-2.418-1.0826-2.418-2.418z"/><path d="m251.076 50.1696c0 3.7238.704 7.1579 2.11 10.3024 1.407 3.1445 3.31 5.8752 5.71 8.1922s5.172 4.1375 8.316 5.4615c3.228 1.2412 6.62 1.8619 10.179 1.8619 3.558 0 6.909-.6207 10.054-1.8619 3.227-1.324 6.041-3.1445 8.44-5.4615 2.483-2.317 4.427-5.0477 5.834-8.1922s2.11-6.5786 2.11-10.3024c0-3.7237-.703-7.1578-2.11-10.3023s-3.351-5.8753-5.834-8.1923c-2.399-2.3169-5.213-4.0961-8.44-5.3373-3.145-1.324-6.496-1.986-10.054-1.986-3.559 0-6.951.662-10.179 1.986-3.144 1.2412-5.916 3.0204-8.316 5.3373-2.4 2.317-4.303 5.0478-5.71 8.1923-1.406 3.1445-2.11 6.5786-2.11 10.3023zm-25.445 0c0-6.951 1.282-13.4054 3.848-19.3634 2.565-6.0408 6.123-11.2954 10.674-15.7639 4.552-4.4684 9.972-7.94394 16.261-10.42643 6.371-2.56524 13.364-3.847865 20.977-3.847865 7.53 0 14.481 1.282625 20.853 3.847865 6.371 2.48249 11.833 5.95803 16.384 10.42643 4.634 4.4685 8.234 9.7231 10.799 15.7639 2.565 5.958 3.848 12.4124 3.848 19.3634s-1.283 13.4469-3.848 19.4876c-2.565 5.958-6.165 11.1712-10.799 15.6397-4.551 4.4685-10.013 7.9854-16.384 10.5506-6.372 2.4825-13.323 3.7237-20.853 3.7237-7.613 0-14.606-1.2412-20.977-3.7237-6.289-2.5652-11.709-6.0821-16.261-10.5506-4.551-4.4685-8.109-9.6817-10.674-15.6397-2.566-6.0407-3.848-12.5366-3.848-19.4876z"/><path d="m361.837 50.1696c0 3.7238.704 7.1579 2.11 10.3024 1.407 3.1445 3.31 5.8752 5.71 8.1922s5.172 4.1375 8.317 5.4615c3.227 1.2412 6.62 1.8619 10.178 1.8619s6.909-.6207 10.054-1.8619c3.227-1.324 6.041-3.1445 8.44-5.4615 2.483-2.317 4.427-5.0477 5.834-8.1922s2.11-6.5786 2.11-10.3024c0-3.7237-.703-7.1578-2.11-10.3023s-3.351-5.8753-5.834-8.1923c-2.399-2.3169-5.213-4.0961-8.44-5.3373-3.145-1.324-6.496-1.986-10.054-1.986s-6.951.662-10.178 1.986c-3.145 1.2412-5.917 3.0204-8.317 5.3373-2.4 2.317-4.303 5.0478-5.71 8.1923-1.406 3.1445-2.11 6.5786-2.11 10.3023zm-25.445 0c0-6.951 1.282-13.4054 3.848-19.3634 2.565-6.0408 6.123-11.2954 10.674-15.7639 4.552-4.4684 9.972-7.94394 16.261-10.42643 6.371-2.56524 13.364-3.847865 20.977-3.847865 7.53 0 14.481 1.282625 20.853 3.847865 6.371 2.48249 11.833 5.95803 16.384 10.42643 4.634 4.4685 8.234 9.7231 10.799 15.7639 2.565 5.958 3.848 12.4124 3.848 19.3634s-1.283 13.4469-3.848 19.4876c-2.565 5.958-6.165 11.1712-10.799 15.6397-4.551 4.4685-10.013 7.9854-16.384 10.5506-6.372 2.4825-13.323 3.7237-20.853 3.7237-7.613 0-14.606-1.2412-20.977-3.7237-6.289-2.5652-11.709-6.0821-16.261-10.5506-4.551-4.4685-8.109-9.6817-10.674-15.6397-2.566-6.0407-3.848-12.5366-3.848-19.4876z"/><path d="m471.672 73.9419c0 1.3355 1.082 2.418 2.418 2.418h3.167c4.22 0 7.985-.662 11.295-1.986s6.083-3.1445 8.317-5.4614c2.317-2.317 4.055-5.0478 5.213-8.1923 1.241-3.2272 1.862-6.7441 1.862-10.5506 0-3.7237-.621-7.1992-1.862-10.4264-1.241-3.2273-3.02-5.9994-5.337-8.3164-2.235-2.317-5.007-4.1375-8.317-5.4615s-7.033-1.986-11.171-1.986h-3.167c-1.336 0-2.418 1.0826-2.418 2.418zm-24.329-68.14926c0-1.33543 1.083-2.41801 2.418-2.41801h33.578c6.372 0 12.33 1.28262 17.874 3.84786 5.627 2.56524 10.509 5.99931 14.647 10.30231 4.22 4.2203 7.53 9.1853 9.93 14.895 2.4 5.627 3.599 11.5436 3.599 17.7498 0 6.1235-1.199 12.0401-3.599 17.7499-2.317 5.6269-5.586 10.5919-9.806 14.8949-4.137 4.303-9.02 7.7371-14.647 10.3024-5.544 2.5652-11.543 3.8478-17.998 3.8478h-33.578c-1.335 0-2.418-1.0826-2.418-2.418z"/><path d="m3.31011 207.868c-1.49713 0-2.634476-1.346-2.383906-2.822l15.066996-88.754c.1974-1.163 1.2046-2.014 2.3839-2.014h20.3634c1.0074 0 1.9093.625 2.2635 1.568l15.8829 42.284c.7861 2.093 3.7475 2.09 4.529-.005l15.774-42.274c.3528-.946 1.256-1.573 2.2654-1.573h20.3594c1.1793 0 2.1863.851 2.3843 2.014l15.067 88.754c.25 1.476-.887 2.822-2.384 2.822h-19.2586c-1.1972 0-2.2141-.876-2.3914-2.06l-6.4601-43.134c-.3638-2.428-3.6967-2.831-4.6285-.559l-18.1498 44.253c-.3723.907-1.2561 1.5-2.2371 1.5h-6.4067c-.9968 0-1.8915-.611-2.2532-1.54l-17.0789-43.86c-.8994-2.309-4.2775-1.932-4.6446.519l-6.4133 42.821c-.1773 1.184-1.1942 2.06-2.3913 2.06z"/><path d="m145.515 161.073c0 3.724.703 7.158 2.11 10.303 1.407 3.144 3.31 5.875 5.71 8.192s5.172 4.137 8.316 5.461c3.227 1.242 6.62 1.862 10.178 1.862 3.559 0 6.91-.62 10.054-1.862 3.228-1.324 6.041-3.144 8.441-5.461 2.482-2.317 4.427-5.048 5.834-8.192 1.407-3.145 2.11-6.579 2.11-10.303s-.703-7.158-2.11-10.302c-1.407-3.145-3.352-5.875-5.834-8.192-2.4-2.317-5.213-4.096-8.441-5.338-3.144-1.324-6.495-1.986-10.054-1.986-3.558 0-6.951.662-10.178 1.986-3.144 1.242-5.916 3.021-8.316 5.338s-4.303 5.047-5.71 8.192c-1.407 3.144-2.11 6.578-2.11 10.302zm-25.446 0c0-6.951 1.283-13.405 3.848-19.363 2.565-6.041 6.124-11.296 10.675-15.764 4.551-4.469 9.971-7.944 16.26-10.427 6.372-2.565 13.364-3.847 20.977-3.847 7.531 0 14.482 1.282 20.853 3.847 6.372 2.483 11.834 5.958 16.385 10.427 4.634 4.468 8.233 9.723 10.799 15.764 2.565 5.958 3.847 12.412 3.847 19.363s-1.282 13.447-3.847 19.488c-2.566 5.958-6.165 11.171-10.799 15.64-4.551 4.468-10.013 7.985-16.385 10.55-6.371 2.483-13.322 3.724-20.853 3.724-7.613 0-14.605-1.241-20.977-3.724-6.289-2.565-11.709-6.082-16.26-10.55-4.551-4.469-8.11-9.682-10.675-15.64-2.565-6.041-3.848-12.537-3.848-19.488z"/><path d="m235.051 207.868c-1.336 0-2.418-1.082-2.418-2.418v-88.754c0-1.335 1.082-2.418 2.418-2.418h20.734c.743 0 1.444.341 1.902.925l39.887 50.796c1.419 1.806 4.32.803 4.32-1.494v-47.809c0-1.335 1.083-2.418 2.418-2.418h19.369c1.335 0 2.418 1.083 2.418 2.418v88.754c0 1.336-1.083 2.418-2.418 2.418h-20.611c-.742 0-1.443-.341-1.902-.924l-39.887-50.796c-1.419-1.806-4.32-.803-4.32 1.493v47.809c0 1.336-1.082 2.418-2.418 2.418z"/><path d="m359.577 145.766c0 2.31 2.928 3.305 4.335 1.474l24.605-32.017c.458-.596 1.166-.945 1.917-.945h23.668c2.053 0 3.172 2.397 1.854 3.971l-32.499 38.802c-.747.893-.753 2.191-.012 3.09l36.054 43.772c1.299 1.577.177 3.955-1.867 3.955h-25.222c-.746 0-1.449-.343-1.907-.931l-26.601-34.112c-1.415-1.814-4.325-.813-4.325 1.487v31.138c0 1.336-1.082 2.418-2.418 2.418h-19.492c-1.336 0-2.418-1.082-2.418-2.418v-88.754c0-1.335 1.082-2.418 2.418-2.418h19.492c1.336 0 2.418 1.083 2.418 2.418z"/><path d="m482.774 132.465c0 1.335-1.083 2.418-2.418 2.418h-24.085c-1.336 0-2.418 1.082-2.418 2.418v10.804c0 1.335 1.082 2.418 2.418 2.418h22.471c1.336 0 2.418 1.082 2.418 2.418v15.768c0 1.336-1.082 2.418-2.418 2.418h-22.471c-1.336 0-2.418 1.083-2.418 2.418v11.301c0 1.335 1.082 2.418 2.418 2.418h24.085c1.335 0 2.418 1.082 2.418 2.418v15.768c0 1.336-1.083 2.418-2.418 2.418h-48.414c-1.335 0-2.418-1.082-2.418-2.418v-88.754c0-1.335 1.083-2.418 2.418-2.418h48.414c1.335 0 2.418 1.083 2.418 2.418z"/><path d="m522.905 163.699c0-.497-.153-.982-.439-1.389l-31.025-44.225c-1.124-1.602.022-3.807 1.98-3.807h23.115c.8 0 1.549.397 1.999 1.059l14.651 21.558c.962 1.414 3.048 1.411 4.004-.007l14.538-21.544c.449-.666 1.2-1.066 2.004-1.066h23.1c1.959 0 3.105 2.208 1.977 3.81l-31.135 44.221c-.287.407-.441.894-.441 1.392v41.749c0 1.336-1.082 2.418-2.418 2.418h-19.492c-1.335 0-2.418-1.082-2.418-2.418z"/><path d="m625.121 183.596c-.973 1.611.188 3.668 2.07 3.668h32.521c1.336 0 2.418 1.082 2.418 2.418v15.768c0 1.336-1.082 2.418-2.418 2.418h-73.345c-1.886 0-3.046-2.061-2.067-3.673l39.852-65.639c.979-1.612-.181-3.673-2.067-3.673h-30.15c-1.335 0-2.418-1.083-2.418-2.418v-15.769c0-1.335 1.083-2.418 2.418-2.418h70.752c1.882 0 3.043 2.056 2.07 3.668z"/><path clip-rule="evenodd" d="m272.22 262.113c1.59-16.719 16.433-28.983 33.152-27.393l87.299 8.305c16.719 1.59 28.983 16.433 27.393 33.152l-2.078 21.843c-.984 10.342-10.165 17.928-20.507 16.944s-19.523 6.602-20.506 16.944l-.587 6.167c-1.308 13.748-13.513 23.832-27.26 22.524l-24.138-2.296c-13.747-1.308-23.832-13.512-22.524-27.26l.633-6.656c.958-10.072-6.43-19.013-16.501-19.971s-17.459-9.899-16.501-19.97zm59.022 12.81c-1.223 12.863-11.74 22.385-23.488 21.267-11.749-1.117-20.281-12.451-19.058-25.314 1.224-12.864 11.74-22.385 23.489-21.268 11.749 1.118 20.281 12.452 19.057 25.315zm47.192 27.993c11.749 1.117 22.265-8.405 23.489-21.268 1.223-12.863-7.309-24.197-19.058-25.315-11.749-1.117-22.265 8.405-23.488 21.268-1.224 12.863 7.308 24.197 19.057 25.315zm-57.214 6.028c.278-2.923 2.874-5.068 5.797-4.79l2.318.221c5.847.556 10.136 5.747 9.579 11.594l-.22 2.317c-.278 2.924-2.874 5.068-5.797 4.79l-2.318-.22c-5.847-.557-10.136-5.747-9.579-11.594zm34.605-2.161c-5.847-.556-11.038 3.733-11.594 9.58l-.22 2.318c-.278 2.923 1.866 5.518 4.79 5.797l2.317.22c5.847.556 11.038-3.733 11.594-9.58l.22-2.317c.279-2.924-1.866-5.519-4.789-5.797z" fill-rule="evenodd"/></g></svg>

<svg width="666" height="361" viewBox="0 0 666 361" fill="none" xmlns="http://www.w3.org/2000/svg">
<path d="M171.832 47.002C171.832 45.6666 172.914 44.584 174.25 44.584H217.698C219.034 44.584 220.118 45.6669 220.099 47.0022C220.042 51.0235 219.841 54.7273 219.495 58.1136C219.082 62.1683 218.254 65.9335 217.013 69.409C215.275 74.2912 212.917 78.6356 209.938 82.442C206.959 86.1658 203.442 89.3103 199.387 91.8755C195.415 94.358 191.03 96.2613 186.23 97.5853C181.431 98.9093 176.383 99.5712 171.087 99.5712C163.805 99.5712 157.144 98.3714 151.103 95.9716C145.145 93.5719 140.014 90.2205 135.711 85.9175C131.408 81.5318 128.057 76.3186 125.657 70.2778C123.258 64.1543 122.058 57.4102 122.058 50.0455C122.058 42.7635 123.216 36.1022 125.533 30.0614C127.933 23.9379 131.284 18.7247 135.587 14.4217C139.973 10.1187 145.228 6.76737 151.351 4.36762C157.475 1.96788 164.301 0.768005 171.832 0.768005C181.596 0.768005 190.161 2.87812 197.525 7.09836C204.242 10.9471 209.685 16.7228 213.855 24.4255C214.518 25.6499 213.941 27.1595 212.655 27.692L194.164 35.347C192.934 35.8562 191.533 35.2697 190.938 34.0789C188.939 30.076 186.459 27.1232 183.499 25.2206C180.107 22.9863 176.217 21.8692 171.832 21.8692C168.191 21.8692 164.881 22.5726 161.902 23.9793C158.923 25.3033 156.357 27.2479 154.206 29.8132C152.137 32.2957 150.482 35.316 149.241 38.8743C148.082 42.4325 147.503 46.4045 147.503 50.7902C147.503 54.7622 148 58.4446 148.993 61.8373C150.068 65.2301 151.641 68.1677 153.709 70.6502C155.778 73.1327 158.343 75.0773 161.405 76.4841C164.467 77.8081 168.025 78.4701 172.08 78.4701C174.48 78.4701 176.797 78.2218 179.031 77.7253C181.265 77.1461 183.251 76.2772 184.989 75.1187C186.809 73.8774 188.299 72.3052 189.457 70.4019C190.205 69.1738 190.797 67.7734 191.235 66.2008C191.631 64.7751 190.483 63.451 189.004 63.451H174.25C172.914 63.451 171.832 62.3684 171.832 61.033V47.002Z" fill="white"/>
<path d="M251.076 50.1696C251.076 53.8934 251.78 57.3275 253.186 60.472C254.593 63.6165 256.496 66.3472 258.896 68.6642C261.296 70.9812 264.068 72.8017 267.212 74.1257C270.44 75.3669 273.832 75.9876 277.391 75.9876C280.949 75.9876 284.3 75.3669 287.445 74.1257C290.672 72.8017 293.486 70.9812 295.885 68.6642C298.368 66.3472 300.312 63.6165 301.719 60.472C303.126 57.3275 303.829 53.8934 303.829 50.1696C303.829 46.4459 303.126 43.0118 301.719 39.8673C300.312 36.7228 298.368 33.992 295.885 31.675C293.486 29.3581 290.672 27.5789 287.445 26.3377C284.3 25.0137 280.949 24.3517 277.391 24.3517C273.832 24.3517 270.44 25.0137 267.212 26.3377C264.068 27.5789 261.296 29.3581 258.896 31.675C256.496 33.992 254.593 36.7228 253.186 39.8673C251.78 43.0118 251.076 46.4459 251.076 50.1696ZM225.631 50.1696C225.631 43.2186 226.913 36.7642 229.479 30.8062C232.044 24.7654 235.602 19.5108 240.153 15.0423C244.705 10.5739 250.125 7.09836 256.414 4.61587C262.785 2.05063 269.778 0.768005 277.391 0.768005C284.921 0.768005 291.872 2.05063 298.244 4.61587C304.615 7.09836 310.077 10.5739 314.628 15.0423C319.262 19.5108 322.862 24.7654 325.427 30.8062C327.992 36.7642 329.275 43.2186 329.275 50.1696C329.275 57.1206 327.992 63.6165 325.427 69.6572C322.862 75.6152 319.262 80.8284 314.628 85.2969C310.077 89.7654 304.615 93.2823 298.244 95.8475C291.872 98.33 284.921 99.5712 277.391 99.5712C269.778 99.5712 262.785 98.33 256.414 95.8475C250.125 93.2823 244.705 89.7654 240.153 85.2969C235.602 80.8284 232.044 75.6152 229.479 69.6572C226.913 63.6165 225.631 57.1206 225.631 50.1696Z" fill="white"/>
<path d="M361.837 50.1696C361.837 53.8934 362.541 57.3275 363.947 60.472C365.354 63.6165 367.257 66.3472 369.657 68.6642C372.057 70.9812 374.829 72.8017 377.974 74.1257C381.201 75.3669 384.594 75.9876 388.152 75.9876C391.71 75.9876 395.061 75.3669 398.206 74.1257C401.433 72.8017 404.247 70.9812 406.646 68.6642C409.129 66.3472 411.073 63.6165 412.48 60.472C413.887 57.3275 414.59 53.8934 414.59 50.1696C414.59 46.4459 413.887 43.0118 412.48 39.8673C411.073 36.7228 409.129 33.992 406.646 31.675C404.247 29.3581 401.433 27.5789 398.206 26.3377C395.061 25.0137 391.71 24.3517 388.152 24.3517C384.594 24.3517 381.201 25.0137 377.974 26.3377C374.829 27.5789 372.057 29.3581 369.657 31.675C367.257 33.992 365.354 36.7228 363.947 39.8673C362.541 43.0118 361.837 46.4459 361.837 50.1696ZM336.392 50.1696C336.392 43.2186 337.674 36.7642 340.24 30.8062C342.805 24.7654 346.363 19.5108 350.914 15.0423C355.466 10.5739 360.886 7.09836 367.175 4.61587C373.546 2.05063 380.539 0.768005 388.152 0.768005C395.682 0.768005 402.633 2.05063 409.005 4.61587C415.376 7.09836 420.838 10.5739 425.389 15.0423C430.023 19.5108 433.623 24.7654 436.188 30.8062C438.753 36.7642 440.036 43.2186 440.036 50.1696C440.036 57.1206 438.753 63.6165 436.188 69.6572C433.623 75.6152 430.023 80.8284 425.389 85.2969C420.838 89.7654 415.376 93.2823 409.005 95.8475C402.633 98.33 395.682 99.5712 388.152 99.5712C380.539 99.5712 373.546 98.33 367.175 95.8475C360.886 93.2823 355.466 89.7654 350.914 85.2969C346.363 80.8284 342.805 75.6152 340.24 69.6572C337.674 63.6165 336.392 57.1206 336.392 50.1696Z" fill="white"/>
<path d="M471.672 73.9419C471.672 75.2774 472.754 76.3599 474.09 76.3599H477.257C481.477 76.3599 485.242 75.6979 488.552 74.3739C491.862 73.0499 494.635 71.2294 496.869 68.9125C499.186 66.5955 500.924 63.8647 502.082 60.7202C503.323 57.493 503.944 53.9761 503.944 50.1696C503.944 46.4459 503.323 42.9704 502.082 39.7432C500.841 36.5159 499.062 33.7438 496.745 31.4268C494.51 29.1098 491.738 27.2893 488.428 25.9653C485.118 24.6413 481.395 23.9793 477.257 23.9793H474.09C472.754 23.9793 471.672 25.0619 471.672 26.3973V73.9419ZM447.343 5.79264C447.343 4.45721 448.426 3.37463 449.761 3.37463H483.339C489.711 3.37463 495.669 4.65725 501.213 7.22249C506.84 9.78773 511.722 13.2218 515.86 17.5248C520.08 21.7451 523.39 26.7101 525.79 32.4198C528.19 38.0468 529.389 43.9634 529.389 50.1696C529.389 56.2931 528.19 62.2097 525.79 67.9195C523.473 73.5464 520.204 78.5114 515.984 82.8144C511.847 87.1174 506.964 90.5515 501.337 93.1168C495.793 95.682 489.794 96.9646 483.339 96.9646H449.761C448.426 96.9646 447.343 95.882 447.343 94.5466V5.79264Z" fill="white"/>
<path d="M3.31011 207.868C1.81298 207.868 0.675634 206.522 0.926204 205.046L15.9932 116.292C16.1906 115.129 17.1978 114.278 18.3771 114.278H38.7405C39.7479 114.278 40.6498 114.903 41.004 115.846L56.8869 158.13C57.673 160.223 60.6344 160.22 61.4159 158.125L77.1899 115.851C77.5427 114.905 78.4459 114.278 79.4553 114.278H99.8147C100.994 114.278 102.001 115.129 102.199 116.292L117.266 205.046C117.516 206.522 116.379 207.868 114.882 207.868H95.6234C94.4262 207.868 93.4093 206.992 93.232 205.808L86.7719 162.674C86.4081 160.246 83.0752 159.843 82.1434 162.115L63.9936 206.368C63.6213 207.275 62.7375 207.868 61.7565 207.868H55.3498C54.353 207.868 53.4583 207.257 53.0966 206.328L36.0177 162.468C35.1183 160.159 31.7402 160.536 31.3731 162.987L24.9598 205.808C24.7825 206.992 23.7656 207.868 22.5685 207.868H3.31011Z" fill="white"/>
<path d="M145.515 161.073C145.515 164.797 146.218 168.231 147.625 171.376C149.032 174.52 150.935 177.251 153.335 179.568C155.735 181.885 158.507 183.705 161.651 185.029C164.878 186.271 168.271 186.891 171.829 186.891C175.388 186.891 178.739 186.271 181.883 185.029C185.111 183.705 187.924 181.885 190.324 179.568C192.806 177.251 194.751 174.52 196.158 171.376C197.565 168.231 198.268 164.797 198.268 161.073C198.268 157.349 197.565 153.915 196.158 150.771C194.751 147.626 192.806 144.896 190.324 142.579C187.924 140.262 185.111 138.483 181.883 137.241C178.739 135.917 175.388 135.255 171.829 135.255C168.271 135.255 164.878 135.917 161.651 137.241C158.507 138.483 155.735 140.262 153.335 142.579C150.935 144.896 149.032 147.626 147.625 150.771C146.218 153.915 145.515 157.349 145.515 161.073ZM120.069 161.073C120.069 154.122 121.352 147.668 123.917 141.71C126.482 135.669 130.041 130.414 134.592 125.946C139.143 121.477 144.563 118.002 150.852 115.519C157.224 112.954 164.216 111.672 171.829 111.672C179.36 111.672 186.311 112.954 192.682 115.519C199.054 118.002 204.516 121.477 209.067 125.946C213.701 130.414 217.3 135.669 219.866 141.71C222.431 147.668 223.713 154.122 223.713 161.073C223.713 168.024 222.431 174.52 219.866 180.561C217.3 186.519 213.701 191.732 209.067 196.201C204.516 200.669 199.054 204.186 192.682 206.751C186.311 209.234 179.36 210.475 171.829 210.475C164.216 210.475 157.224 209.234 150.852 206.751C144.563 204.186 139.143 200.669 134.592 196.201C130.041 191.732 126.482 186.519 123.917 180.561C121.352 174.52 120.069 168.024 120.069 161.073Z" fill="white"/>
<path d="M235.051 207.868C233.715 207.868 232.633 206.786 232.633 205.45V116.696C232.633 115.361 233.715 114.278 235.051 114.278H255.785C256.528 114.278 257.229 114.619 257.687 115.203L297.574 165.999C298.993 167.805 301.894 166.802 301.894 164.505V116.696C301.894 115.361 302.977 114.278 304.312 114.278H323.681C325.016 114.278 326.099 115.361 326.099 116.696V205.45C326.099 206.786 325.016 207.868 323.681 207.868H303.07C302.328 207.868 301.627 207.527 301.168 206.944L261.281 156.148C259.862 154.342 256.961 155.345 256.961 157.641V205.45C256.961 206.786 255.879 207.868 254.543 207.868H235.051Z" fill="white"/>
<path d="M359.577 145.766C359.577 148.076 362.505 149.071 363.912 147.24L388.517 115.223C388.975 114.627 389.683 114.278 390.434 114.278H414.102C416.155 114.278 417.274 116.675 415.956 118.249L383.457 157.051C382.71 157.944 382.704 159.242 383.445 160.141L419.499 203.913C420.798 205.49 419.676 207.868 417.632 207.868H392.41C391.664 207.868 390.961 207.525 390.503 206.937L363.902 172.825C362.487 171.011 359.577 172.012 359.577 174.312V205.45C359.577 206.786 358.495 207.868 357.159 207.868H337.667C336.331 207.868 335.249 206.786 335.249 205.45V116.696C335.249 115.361 336.331 114.278 337.667 114.278H357.159C358.495 114.278 359.577 115.361 359.577 116.696V145.766Z" fill="white"/>
<path d="M482.774 132.465C482.774 133.8 481.691 134.883 480.356 134.883H456.271C454.935 134.883 453.853 135.965 453.853 137.301V148.105C453.853 149.44 454.935 150.523 456.271 150.523H478.742C480.078 150.523 481.16 151.605 481.16 152.941V168.709C481.16 170.045 480.078 171.127 478.742 171.127H456.271C454.935 171.127 453.853 172.21 453.853 173.545V184.846C453.853 186.181 454.935 187.264 456.271 187.264H480.356C481.691 187.264 482.774 188.346 482.774 189.682V205.45C482.774 206.786 481.691 207.868 480.356 207.868H431.942C430.607 207.868 429.524 206.786 429.524 205.45V116.696C429.524 115.361 430.607 114.278 431.942 114.278H480.356C481.691 114.278 482.774 115.361 482.774 116.696V132.465Z" fill="white"/>
<path d="M522.905 163.699C522.905 163.202 522.752 162.717 522.466 162.31L491.441 118.085C490.317 116.483 491.463 114.278 493.421 114.278H516.536C517.336 114.278 518.085 114.675 518.535 115.337L533.186 136.895C534.148 138.309 536.234 138.306 537.19 136.888L551.728 115.344C552.177 114.678 552.928 114.278 553.732 114.278H576.832C578.791 114.278 579.937 116.486 578.809 118.088L547.674 162.309C547.387 162.716 547.233 163.203 547.233 163.701V205.45C547.233 206.786 546.151 207.868 544.815 207.868H525.323C523.988 207.868 522.905 206.786 522.905 205.45V163.699Z" fill="white"/>
<path d="M625.121 183.596C624.148 185.207 625.309 187.264 627.191 187.264H659.712C661.048 187.264 662.13 188.346 662.13 189.682V205.45C662.13 206.786 661.048 207.868 659.712 207.868H586.367C584.481 207.868 583.321 205.807 584.3 204.195L624.152 138.556C625.131 136.944 623.971 134.883 622.085 134.883H591.935C590.6 134.883 589.517 133.8 589.517 132.465V116.696C589.517 115.361 590.6 114.278 591.935 114.278H662.687C664.569 114.278 665.73 116.334 664.757 117.946L625.121 183.596Z" fill="white"/>
<path fill-rule="evenodd" clip-rule="evenodd" d="M272.22 262.113C273.81 245.394 288.653 233.13 305.372 234.72L392.671 243.025C409.39 244.615 421.654 259.458 420.064 276.177L417.986 298.02C417.002 308.362 407.821 315.948 397.479 314.964C387.137 313.98 377.956 321.566 376.973 331.908L376.386 338.075C375.078 351.823 362.873 361.907 349.126 360.599L324.988 358.303C311.241 356.995 301.156 344.791 302.464 331.043L303.097 324.387C304.055 314.315 296.667 305.374 286.596 304.416C276.525 303.458 269.137 294.517 270.095 284.446L272.22 262.113ZM331.242 274.923C330.019 287.786 319.502 297.308 307.754 296.19C296.005 295.073 287.473 283.739 288.696 270.876C289.92 258.012 300.436 248.491 312.185 249.608C323.934 250.726 332.466 262.06 331.242 274.923ZM378.434 302.916C390.183 304.033 400.699 294.511 401.923 281.648C403.146 268.785 394.614 257.451 382.865 256.333C371.116 255.216 360.6 264.738 359.377 277.601C358.153 290.464 366.685 301.798 378.434 302.916ZM321.22 308.944C321.498 306.021 324.094 303.876 327.017 304.154L329.335 304.375C335.182 304.931 339.471 310.122 338.914 315.969L338.694 318.286C338.416 321.21 335.82 323.354 332.897 323.076L330.579 322.856C324.732 322.299 320.443 317.109 321 311.262L321.22 308.944ZM355.825 306.783C349.978 306.227 344.787 310.516 344.231 316.363L344.011 318.681C343.733 321.604 345.877 324.199 348.801 324.478L351.118 324.698C356.965 325.254 362.156 320.965 362.712 315.118L362.932 312.801C363.211 309.877 361.066 307.282 358.143 307.004L355.825 306.783Z" fill="white"/>
</svg>
